X: 22291
T: La Promeneuse
R: barndance
M: 4/4
K: Dmajor
|:zAde|f3f|g>fga|[M:6/4] f2 d-d/e/f/e/ d|[M:4/4] B3d|1 cde>d|f4:|2 cde>A|d4||
|:zd/e/ dc|B3d|cAce|d2A2-|-A d/e/ dc|B3d|cAce|d4:|

